Newaita-dark/mimetypes/22/text-xml.svg

<?xml version="1.0" encoding="UTF-8"?>
<svg xmlns="http://www.w3.org/2000/svg" xmlns:xlink="http://www.w3.org/1999/xlink" width="22px" height="22px" viewBox="0 0 22 22" version="1.1">
<defs>
<linearGradient id="linear0" gradientUnits="userSpaceOnUse" x1="254" y1="233.5" x2="254" y2="254.666672" gradientTransform="matrix(0.0429729,0,0,0.0429729,0.454795,9.239165)">
<stop offset="0" style="stop-color:rgb(0%,0%,0%);stop-opacity:0.27451;"/>
<stop offset="1" style="stop-color:rgb(0%,0%,0%);stop-opacity:0;"/>
</linearGradient>
<radialGradient id="radial0" gradientUnits="userSpaceOnUse" cx="450.908936" cy="189.579361" fx="450.908936" fy="189.579361" r="21.166656" gradientTransform="matrix(0.000000119742,-0.0537161,-0.0966889,-0.0000000698078,34.020641,43.721791)">
<stop offset="0" style="stop-color:rgb(0%,0%,0%);stop-opacity:0.313726;"/>
<stop offset="0.222222" style="stop-color:rgb(0%,0%,0%);stop-opacity:0.27451;"/>
<stop offset="1" style="stop-color:rgb(0%,0%,0%);stop-opacity:0;"/>
</radialGradient>
<radialGradient id="radial1" gradientUnits="userSpaceOnUse" cx="450.908936" cy="189.579361" fx="450.908936" fy="189.579361" r="21.166656" gradientTransform="matrix(-0.000000119742,0.0537161,0.0966889,0.0000000698078,-12.645221,-5.175142)">
<stop offset="0" style="stop-color:rgb(0%,0%,0%);stop-opacity:0.313726;"/>
<stop offset="0.222222" style="stop-color:rgb(0%,0%,0%);stop-opacity:0.27451;"/>
<stop offset="1" style="stop-color:rgb(0%,0%,0%);stop-opacity:0;"/>
</radialGradient>
<radialGradient id="radial2" gradientUnits="userSpaceOnUse" cx="450.908936" cy="189.579361" fx="450.908936" fy="189.579361" r="21.166656" gradientTransform="matrix(-0.000000119742,-0.0537161,0.0966889,-0.0000000698078,-12.645221,43.721791)">
<stop offset="0" style="stop-color:rgb(0%,0%,0%);stop-opacity:0.313726;"/>
<stop offset="0.222222" style="stop-color:rgb(0%,0%,0%);stop-opacity:0.27451;"/>
<stop offset="1" style="stop-color:rgb(0%,0%,0%);stop-opacity:0;"/>
</radialGradient>
<radialGradient id="radial3" gradientUnits="userSpaceOnUse" cx="450.908936" cy="189.579361" fx="450.908936" fy="189.579361" r="21.166656" gradientTransform="matrix(0.000000119742,0.0537161,-0.0966889,0.0000000698078,34.02064,-5.175142)">
<stop offset="0" style="stop-color:rgb(0%,0%,0%);stop-opacity:0.313726;"/>
<stop offset="0.222222" style="stop-color:rgb(0%,0%,0%);stop-opacity:0.27451;"/>
<stop offset="1" style="stop-color:rgb(0%,0%,0%);stop-opacity:0;"/>
</radialGradient>
<linearGradient id="linear1" gradientUnits="userSpaceOnUse" x1="940" y1="1695.118164" x2="940" y2="175.118118" gradientTransform="matrix(0.0113699,0,0,0.0113699,0,0)">
<stop offset="0" style="stop-color:rgb(80.784315%,57.647061%,84.705883%);stop-opacity:1;"/>
<stop offset="1" style="stop-color:rgb(88.235295%,74.509805%,90.588236%);stop-opacity:1;"/>
</linearGradient>
<linearGradient id="linear2" gradientUnits="userSpaceOnUse" x1="249.189423" y1="233.5" x2="249.189423" y2="254.666687" gradientTransform="matrix(0.0205522,0,0,0.0752024,10.341666,-11.248126)">
<stop offset="0" style="stop-color:rgb(0%,0%,0%);stop-opacity:0.27451;"/>
<stop offset="1" style="stop-color:rgb(0%,0%,0%);stop-opacity:0;"/>
</linearGradient>
<linearGradient id="linear3" gradientUnits="userSpaceOnUse" x1="338.666656" y1="233.5" x2="338.666656" y2="-168.666672" gradientTransform="matrix(0.0429729,0,0,0.0429729,0,9.239163)">
<stop offset="0" style="stop-color:rgb(67.058825%,27.843139%,73.725492%);stop-opacity:1;"/>
<stop offset="1" style="stop-color:rgb(72.941178%,40.784314%,78.431374%);stop-opacity:1;"/>
</linearGradient>
<filter id="alpha" filterUnits="objectBoundingBox" x="0%" y="0%" width="100%" height="100%">
  <feColorMatrix type="matrix" in="SourceGraphic" values="0 0 0 0 1 0 0 0 0 1 0 0 0 0 1 0 0 0 1 0"/>
</filter>
<mask id="mask0">
  <g filter="url(#alpha)">
<rect x="0" y="0" width="22" height="22" style="fill:rgb(0%,0%,0%);fill-opacity:0.99;stroke:none;"/>
  </g>
</mask>
<linearGradient id="linear4" gradientUnits="userSpaceOnUse" x1="-99.422264" y1="346.192566" x2="248.864288" y2="145.109238" gradientTransform="matrix(1,0,0,1,-34.795349,14.172065)">
<stop offset="0" style="stop-color:rgb(67.058825%,27.843139%,73.725492%);stop-opacity:1;"/>
<stop offset="1" style="stop-color:rgb(72.941178%,40.784314%,78.431374%);stop-opacity:1;"/>
</linearGradient>
<clipPath id="clip1">
  <rect x="0" y="0" width="22" height="22"/>
</clipPath>
<g id="surface5" clip-path="url(#clip1)">
<path style="fill-rule:nonzero;fill:url(#linear4);stroke-width:3;stroke-linecap:round;stroke-linejoin:round;stroke:rgb(12.941177%,12.941177%,12.941177%);stroke-opacity:1;stroke-miterlimit:4;" d="M -45.937988 240.800915 L 91.629039 240.73579 C 94.562674 240.796688 96.895985 243.182904 96.92289 246.093012 L 96.923796 256.632757 C 96.950701 259.542866 94.588011 261.96398 91.654376 261.903082 L -45.912651 261.968207 C -48.846287 261.907309 -51.267401 259.54462 -51.294306 256.634511 L -51.207408 246.07124 C -51.234313 243.161131 -48.871624 240.740017 -45.937988 240.800915 Z M -45.937988 240.800915 " transform="matrix(0.0111222,-0.0415086,0.0415086,0.0111222,0,9.239163)"/>
</g>
<linearGradient id="linear5" gradientUnits="userSpaceOnUse" x1="243.416672" y1="233.5" x2="243.416672" y2="-168.666672" >
<stop offset="0" style="stop-color:rgb(67.058825%,27.843139%,73.725492%);stop-opacity:1;"/>
<stop offset="1" style="stop-color:rgb(72.941178%,40.784314%,78.431374%);stop-opacity:1;"/>
</linearGradient>
<linearGradient id="linear6" gradientUnits="userSpaceOnUse" x1="254" y1="233.5" x2="248.708344" y2="-168.666672" >
<stop offset="0" style="stop-color:rgb(67.058825%,27.843139%,73.725492%);stop-opacity:1;"/>
<stop offset="1" style="stop-color:rgb(72.941178%,40.784314%,78.431374%);stop-opacity:1;"/>
</linearGradient>
</defs>
<g id="surface1">
<path style=" stroke:none;fill-rule:nonzero;fill:url(#linear0);" d="M 5.457031 19.273438 L 15.917969 19.273438 L 15.917969 20.183594 L 5.457031 20.183594 Z M 5.457031 19.273438 "/>
<path style=" stroke:none;fill-rule:nonzero;fill:url(#radial0);" d="M 15.917969 19.273438 L 17.738281 19.273438 L 17.738281 18.363281 L 15.917969 18.363281 Z M 15.917969 19.273438 "/>
<path style=" stroke:none;fill-rule:nonzero;fill:url(#radial1);" d="M 5.457031 19.273438 L 3.636719 19.273438 L 3.636719 20.183594 L 5.457031 20.183594 Z M 5.457031 19.273438 "/>
<path style=" stroke:none;fill-rule:nonzero;fill:url(#radial2);" d="M 5.457031 19.273438 L 3.636719 19.273438 L 3.636719 18.363281 L 5.457031 18.363281 Z M 5.457031 19.273438 "/>
<path style=" stroke:none;fill-rule:nonzero;fill:url(#radial3);" d="M 15.917969 19.273438 L 17.738281 19.273438 L 17.738281 20.183594 L 15.917969 20.183594 Z M 15.917969 19.273438 "/>
<path style=" stroke:none;fill-rule:nonzero;fill:url(#linear1);" d="M 12.746094 1.992188 L 4.546875 1.992188 C 4.042969 1.992188 3.636719 2.398438 3.636719 2.902344 L 3.636719 18.363281 C 3.636719 18.867188 4.042969 19.273438 4.546875 19.273438 L 16.828125 19.273438 C 17.332031 19.273438 17.738281 18.867188 17.738281 18.363281 L 17.738281 6.980469 Z M 12.746094 1.992188 "/>
<path style=" stroke:none;fill-rule:nonzero;fill:url(#linear2);" d="M 12.734375 6.3125 L 17.054688 6.3125 L 17.738281 6.992188 L 17.738281 7.902344 L 12.734375 7.902344 Z M 12.734375 6.3125 "/>
<path style=" stroke:none;fill-rule:nonzero;fill:rgb(0%,0%,0%);fill-opacity:0.235294;" d="M 3.636719 18.011719 L 3.636719 18.363281 C 3.636719 18.867188 4.042969 19.273438 4.546875 19.273438 L 16.828125 19.273438 C 17.332031 19.273438 17.738281 18.867188 17.738281 18.363281 L 17.738281 18.011719 C 17.738281 18.515625 17.332031 18.921875 16.828125 18.921875 L 4.546875 18.921875 C 4.042969 18.921875 3.636719 18.515625 3.636719 18.011719 Z M 3.636719 18.011719 "/>
<path style=" stroke:none;fill-rule:nonzero;fill:rgb(100%,100%,100%);fill-opacity:0.392157;" d="M 4.546875 1.992188 C 4.042969 1.992188 3.636719 2.398438 3.636719 2.902344 L 3.636719 3.242188 C 3.636719 2.738281 4.042969 2.332031 4.546875 2.332031 L 12.746094 2.332031 L 17.738281 7.320312 L 17.738281 6.980469 L 12.746094 1.992188 Z M 4.546875 1.992188 "/>
<path style=" stroke:none;fill-rule:nonzero;fill:url(#linear3);" d="M 17.738281 6.980469 L 12.746094 1.992188 L 12.746094 6.070312 C 12.746094 6.574219 13.152344 6.980469 13.65625 6.980469 Z M 17.738281 6.980469 "/>
<path style=" stroke:none;fill-rule:nonzero;fill:rgb(0%,0%,0%);fill-opacity:0.235294;" d="M 12.746094 5.855469 L 12.746094 6.070312 C 12.746094 6.574219 13.152344 6.980469 13.65625 6.980469 L 17.738281 6.980469 L 17.523438 6.765625 L 13.65625 6.765625 C 13.152344 6.765625 12.746094 6.359375 12.746094 5.855469 Z M 12.746094 5.855469 "/>
<path style=" stroke:none;fill-rule:nonzero;fill:rgb(100%,100%,100%);fill-opacity:0.392157;" d="M 12.746094 1.992188 L 12.746094 2.332031 L 17.394531 6.980469 L 17.738281 6.980469 Z M 12.746094 1.992188 "/>
<path style=" stroke:none;fill-rule:nonzero;fill:rgb(12.941177%,12.941177%,12.941177%);fill-opacity:1;" d="M 12.746094 1.925781 C 12.710938 1.925781 12.683594 1.957031 12.683594 1.992188 L 12.683594 6.070312 C 12.683594 6.609375 13.117188 7.042969 13.65625 7.042969 L 17.738281 7.042969 C 17.761719 7.042969 17.785156 7.027344 17.796875 7.003906 C 17.804688 6.980469 17.800781 6.953125 17.78125 6.933594 L 12.792969 1.945312 C 12.78125 1.933594 12.765625 1.925781 12.746094 1.925781 Z M 12.8125 2.148438 L 17.582031 6.914062 L 13.65625 6.914062 C 13.1875 6.914062 12.8125 6.539062 12.8125 6.070312 Z M 12.8125 2.148438 "/>
<path style=" stroke:none;fill-rule:nonzero;fill:rgb(12.941177%,12.941177%,12.941177%);fill-opacity:1;" d="M 4.546875 1.925781 C 4.007812 1.925781 3.574219 2.363281 3.574219 2.902344 L 3.574219 18.363281 C 3.574219 18.902344 4.007812 19.335938 4.546875 19.335938 L 16.828125 19.335938 C 17.367188 19.335938 17.800781 18.902344 17.800781 18.363281 L 17.800781 6.980469 C 17.800781 6.964844 17.792969 6.945312 17.78125 6.933594 L 12.792969 1.945312 C 12.78125 1.933594 12.765625 1.925781 12.746094 1.925781 Z M 4.546875 2.054688 L 12.722656 2.054688 L 17.671875 7.007812 L 17.671875 18.363281 C 17.671875 18.832031 17.296875 19.207031 16.828125 19.207031 L 4.546875 19.207031 C 4.078125 19.207031 3.703125 18.832031 3.703125 18.363281 L 3.703125 2.902344 C 3.703125 2.429688 4.078125 2.054688 4.546875 2.054688 Z M 4.546875 2.054688 "/>
<use xlink:href="#surface5" mask="url(#mask0)"/>
<path style="fill-rule:nonzero;fill:url(#linear5);stroke-width:3;stroke-linecap:round;stroke-linejoin:round;stroke:rgb(12.941177%,12.941177%,12.941177%);stroke-opacity:1;stroke-miterlimit:4;" d="M 196.435787 9.342213 C 194.345077 7.251503 190.981762 7.251503 188.981953 9.342213 L 166.529552 31.794614 L 158.984818 39.248448 C 156.985009 41.248257 156.985009 44.429771 158.803017 46.520481 C 158.893917 46.611381 158.984818 46.702281 158.984818 46.702281 L 188.981953 76.699417 C 190.981762 78.790126 194.345077 78.790126 196.435787 76.699417 L 203.88962 69.154683 C 205.98033 67.154874 205.98033 63.791559 203.88962 61.700849 L 185.164136 42.975365 L 203.88962 24.24988 C 205.98033 22.250071 205.98033 18.886756 203.88962 16.796046 Z M 196.435787 9.342213 " transform="matrix(0.0429729,0,0,0.0429729,0,9.239163)"/>
<path style="fill-rule:nonzero;fill:url(#linear6);stroke-width:3;stroke-linecap:round;stroke-linejoin:round;stroke:rgb(12.941177%,12.941177%,12.941177%);stroke-opacity:1;stroke-miterlimit:4;" d="M 300.971259 9.342213 C 303.061968 7.251503 306.425283 7.251503 308.425092 9.342213 L 330.877494 31.794614 L 338.422228 39.248448 C 340.422037 41.248257 340.512937 44.429771 338.604029 46.520481 C 338.513128 46.611381 338.422228 46.702281 338.422228 46.702281 L 308.425092 76.699417 C 306.425283 78.790126 303.061968 78.790126 300.971259 76.699417 L 293.517425 69.154683 C 291.426716 67.154874 291.426716 63.791559 293.517425 61.700849 L 312.24291 42.975365 L 293.517425 24.24988 C 291.426716 22.250071 291.426716 18.886756 293.517425 16.796046 Z M 300.971259 9.342213 " transform="matrix(0.0429729,0,0,0.0429729,0,9.239163)"/>
</g>
</svg>

<svg height="22pt" viewBox="0 0 22 22" width="22pt" xmlns="http://www.w3.org/2000/svg" xmlns:xlink="http://www.w3.org/1999/xlink"><linearGradient id="a"><stop offset="0" stop-opacity=".275"/><stop offset="1" stop-opacity="0"/></linearGradient><linearGradient id="b" gradientUnits="userSpaceOnUse" x1="11.36938" x2="11.36938" xlink:href="#a" y1="19.273495" y2="20.18304099"/><linearGradient id="c"><stop offset="0" stop-opacity=".314"/><stop offset=".222" stop-opacity=".275"/><stop offset="1" stop-opacity="0"/></linearGradient><radialGradient id="d" cx="450.909" cy="189.579" gradientTransform="matrix(0 -.05372 -.09669 0 34.02 43.722)" gradientUnits="userSpaceOnUse" r="21.167" xlink:href="#c"/><radialGradient id="e" cx="450.909" cy="189.579" gradientTransform="matrix(0 .05372 .09669 0 -12.645 -5.175)" gradientUnits="userSpaceOnUse" r="21.167" xlink:href="#c"/><radialGradient id="f" cx="450.909" cy="189.579" gradientTransform="matrix(0 -.05372 .09669 0 -12.645 43.722)" gradientUnits="userSpaceOnUse" r="21.167" xlink:href="#c"/><radialGradient id="g" cx="450.909" cy="189.579" gradientTransform="matrix(0 .05372 -.09669 0 34.02 -5.175)" gradientUnits="userSpaceOnUse" r="21.167" xlink:href="#c"/><linearGradient id="h" gradientTransform="matrix(.0113699 .00004763 -.00004763 .0113699 0 0)" gradientUnits="userSpaceOnUse" x1="940" x2="940" y1="1695.118" y2="175.118"><stop offset="0" stop-color="#ce93d8"/><stop offset="1" stop-color="#e1bee7"/></linearGradient><linearGradient id="i" gradientTransform="matrix(.02055 0 0 .0752 10.342 -11.248)" gradientUnits="userSpaceOnUse" x1="249.189" x2="249.189" xlink:href="#a" y1="233.5" y2="254.667"/><linearGradient id="j"><stop offset="0" stop-color="#ab47bc"/><stop offset="1" stop-color="#ba68c8"/></linearGradient><linearGradient id="k" gradientUnits="userSpaceOnUse" x1="14.55252099" x2="14.55252099" xlink:href="#j" y1="19.273495" y2="1.99237901"/><filter id="l" height="100%" width="100%" x="0%" y="0%"><feColorMatrix in="SourceGraphic" values="0 0 0 0 1 0 0 0 0 1 0 0 0 0 1 0 0 0 1 0"/></filter><mask id="m"><path d="m0 0h22v22h-22z" fill-opacity=".988" filter="url(#l)"/></mask><linearGradient id="n" gradientUnits="userSpaceOnUse" x1="-134.217" x2="214.069" xlink:href="#j" y1="360.365" y2="159.281"/><clipPath id="o"><path d="m0 0h22v22h-22z"/></clipPath><linearGradient id="p" gradientUnits="userSpaceOnUse" x1="243.417" x2="243.417" xlink:href="#j" y1="233.5" y2="-168.667"/><linearGradient id="q" gradientUnits="userSpaceOnUse" x1="254" x2="248.708" xlink:href="#j" y1="233.5" y2="-168.667"/><path d="m5.457 19.273h10.461v.91h-10.461zm0 0" fill="url(#b)"/><path d="m15.918 19.273h1.82v-.91h-1.82zm0 0" fill="url(#d)"/><path d="m5.457 19.273h-1.82v.91h1.82zm0 0" fill="url(#e)"/><path d="m5.457 19.273h-1.82v-.91h1.82zm0 0" fill="url(#f)"/><path d="m15.918 19.273h1.82v.91h-1.82zm0 0" fill="url(#g)"/><path d="m12.746 1.992h-8.2a.909.909 0 0 0 -.91.91v15.461c0 .504.407.91.91.91h12.282c.504 0 .91-.406.91-.91v-11.383zm0 0" fill="url(#h)"/><path d="m12.734 6.313h4.32l.684.68v.91h-5.004zm0 0" fill="url(#i)"/><path d="m3.637 18.012v.351c0 .504.406.91.91.91h12.281c.504 0 .91-.406.91-.91v-.351c0 .504-.406.91-.91.91h-12.281a.909.909 0 0 1 -.91-.91zm0 0" fill-opacity=".235"/><path d="m4.547 1.992a.909.909 0 0 0 -.91.91v.34c0-.504.406-.91.91-.91h8.2l4.991 4.988v-.34l-4.992-4.988zm0 0" fill="#fff" fill-opacity=".392"/><path d="m17.738 6.98-4.992-4.988v4.078c0 .504.406.91.91.91zm0 0" fill="url(#k)"/><path d="m12.746 5.855v.215c0 .504.406.91.91.91h4.082l-.215-.214h-3.867a.909.909 0 0 1 -.91-.91zm0 0" fill-opacity=".235"/><path d="m12.746 1.992v.34l4.649 4.648h.343zm0 0" fill="#fff" fill-opacity=".392"/><path d="m12.746 1.926c-.035 0-.062.031-.062.066v4.078c0 .54.433.973.972.973h4.082a.068.068 0 0 0 .059-.04.068.068 0 0 0 -.016-.07l-4.988-4.988a.065.065 0 0 0 -.047-.02zm.066.222 4.77 4.766h-3.926a.84.84 0 0 1 -.844-.844zm0 0" fill="#212121"/><path d="m4.547 1.926a.974.974 0 0 0 -.973.976v15.461c0 .54.434.973.973.973h12.281a.97.97 0 0 0 .973-.973v-11.383a.072.072 0 0 0 -.02-.046l-4.988-4.989a.065.065 0 0 0 -.047-.02zm0 .129h8.176l4.949 4.953v11.355a.84.84 0 0 1 -.844.844h-12.281a.84.84 0 0 1 -.844-.844v-15.46c0-.473.375-.848.844-.848zm0 0" fill="#212121"/><g clip-path="url(#o)" mask="url(#m)"><path d="m-45.938 240.8 137.567-.064a5.409 5.409 0 0 1 5.294 5.357v10.54c.028 2.91-2.335 5.331-5.269 5.27l-137.567.065c-2.933-.06-5.354-2.423-5.381-5.333l.087-10.564c-.027-2.91 2.335-5.331 5.269-5.27zm0 0" fill="url(#n)" stroke="#212121" stroke-linecap="round" stroke-linejoin="round" stroke-width="3" transform="matrix(.01112 -.0415 .0415 .01112 0 9.24)"/></g><g stroke="#212121" stroke-linecap="round" stroke-linejoin="round" stroke-width="3"><path d="m196.436 9.342c-2.09-2.09-5.454-2.09-7.454 0l-22.452 22.453-7.545 7.453c-2 2-2 5.182-.182 7.272l.182.182 29.997 29.998c2 2.091 5.363 2.091 7.454 0l7.454-7.544c2.09-2 2.09-5.363 0-7.454l-18.726-18.726 18.726-18.726c2.09-2 2.09-5.363 0-7.454zm0 0" fill="url(#p)" transform="matrix(.04297 0 0 .04297 0 9.24)"/><path d="m300.971 9.342c2.091-2.09 5.454-2.09 7.454 0l22.452 22.453 7.545 7.453c2 2 2.09 5.182.182 7.272l-.182.182-29.997 29.998c-2 2.091-5.363 2.091-7.454 0l-7.454-7.544c-2.09-2-2.09-5.363 0-7.454l18.726-18.726-18.726-18.725c-2.09-2-2.09-5.363 0-7.454zm0 0" fill="url(#q)" transform="matrix(.04297 0 0 .04297 0 9.24)"/></g></svg>
